X:4837
L:1/8
M:3/4
K:F
 f2 | e2 d2 c>A | G2 G2 A>G | F2 F2 G2 | A4 c2 | d2 d2 c>A | A>G G2 A>G | F2 FD FG | A4 f>e | 
 (e>d) d2 cA | AG G2 AG | F2 FD FG | A4 FG | (Af) f2 gf | e2 d2 cA | c2 dc AG | G2 F2 F2 | F4 ||

